X: 1
T:Flower of Scotland
M:6/8
L:1/8
Q:80
C:
S:Slow Air
K:HP
|: A|
{g}f2e{Gdc}d3|
{g}A3-A2{g}A|
{Gdc}d2f{gef}e3-|  !
-e2f/2e/2{Gdc}d2e|
{g}f3-f2{g}f|
{gf}gfg{ag}a3|  !
{Gdc}d3-d2{g}A|
{g}e2{A}e{g}ede|
{g}f2g{fg}f2e|  !
{Gdc}d3{g}A3-|
A2f{gf}gfg|
{ag}a3{Gdc}d3-|  !
d2f{gf}gfe|
{g}f2e{Gdc}d3-|
d2{g}d{g}c2e|  !
{Gdc}d3-d3-|
d2:| |
{g}d|  !
{g}c3-c3-|
c3e3|
{Gdc}d6|]
